static/assets/images/networks/taiko.svg

<svg width="256" height="256" viewBox="0 0 256 256" fill="none" xmlns="http://www.w3.org/2000/svg">
<path d="M128 256C198.692 256 256 198.692 256 128C256 57.3075 198.692 0 128 0C57.3075 0 0 57.3075 0 128C0 198.692 57.3075 256 128 256Z" fill="#E81899"/>
<path d="M219.009 163.23L186.451 118.882C184.764 116.573 182.617 114.64 180.147 113.204C177.677 111.768 174.937 110.861 172.1 110.54C171.472 110.468 170.869 110.249 170.34 109.901C169.812 109.552 169.372 109.085 169.057 108.535C168.741 107.986 168.559 107.37 168.524 106.737C168.49 106.104 168.604 105.471 168.857 104.891C169.999 102.267 170.586 99.4349 170.58 96.5727C170.574 93.7105 169.976 90.8807 168.823 88.262L146.797 37.8206C145.2 34.1571 142.571 31.0403 139.232 28.8519C135.894 26.6636 131.991 25.4987 128.002 25.5C124.014 25.5007 120.112 26.6664 116.774 28.8545C113.435 31.0426 110.806 34.1583 109.206 37.8206L87.1782 88.262C86.0289 90.8816 85.4326 93.7112 85.4269 96.5728C85.4212 99.4345 86.0061 102.266 87.1449 104.891C87.6555 106.072 87.5747 107.425 86.9407 108.538C86.6246 109.086 86.1851 109.552 85.6574 109.899C85.1297 110.247 84.5283 110.466 83.9012 110.539C81.064 110.86 78.3239 111.767 75.8539 113.203C73.384 114.639 71.2376 116.572 69.5503 118.881L36.9921 163.23C34.6292 166.452 33.253 170.293 33.0317 174.286C32.8103 178.278 33.7532 182.249 35.7454 185.713C37.7427 189.173 40.7008 191.975 44.2594 193.779C47.8179 195.583 51.8232 196.311 55.7871 195.874L110.372 189.782C113.21 189.472 115.952 188.576 118.427 187.15C120.901 185.723 123.053 183.798 124.747 181.495C125.123 180.985 125.613 180.57 126.178 180.283C126.743 179.997 127.367 179.848 128 179.847C129.282 179.847 130.483 180.461 131.253 181.495C132.947 183.798 135.099 185.723 137.573 187.15C140.048 188.576 142.79 189.472 145.628 189.782L200.212 195.874C204.176 196.316 208.184 195.591 211.744 193.786C215.303 191.982 218.261 189.176 220.255 185.713C222.247 182.249 223.19 178.278 222.968 174.286C222.747 170.293 221.372 166.452 219.009 163.23ZM101.419 94.5931L123.479 44.0945C123.865 43.211 124.499 42.4591 125.305 41.9305C126.11 41.4018 127.051 41.1192 128.013 41.117C128.976 41.119 129.917 41.4015 130.722 41.9301C131.528 42.4588 132.162 43.2108 132.549 44.0945L154.607 94.5931C154.95 95.3777 155.093 96.2357 155.022 97.0894C154.95 97.943 154.668 98.7654 154.2 99.4821C153.731 100.199 153.092 100.787 152.34 101.194C151.588 101.6 150.746 101.812 149.891 101.811H106.123C105.268 101.811 104.427 101.598 103.674 101.191C102.922 100.784 102.283 100.196 101.814 99.4795C101.349 98.7619 101.069 97.9396 101 97.0865C100.93 96.2335 101.075 95.3766 101.419 94.5931ZM112.743 171.472C112.357 172.236 111.787 172.892 111.084 173.38C110.381 173.868 109.568 174.172 108.718 174.266L54.0786 180.359C53.1221 180.466 52.1553 180.291 51.2958 179.858C50.4362 179.424 49.7209 178.749 49.2367 177.916C48.7554 177.08 48.528 176.122 48.5825 175.159C48.6369 174.196 48.9707 173.269 49.5431 172.494L82.1345 128.099C82.6396 127.409 83.3086 126.857 84.0807 126.491C84.8528 126.126 85.7036 125.96 86.556 126.008C87.4099 126.054 88.2389 126.312 88.9676 126.761C89.6962 127.209 90.3015 127.833 90.7282 128.576L90.7615 128.633L112.584 166.527L112.619 166.583C113.046 167.324 113.283 168.16 113.307 169.015C113.33 169.871 113.14 170.719 112.754 171.482L112.743 171.472ZM132.49 154.331C132.035 155.121 131.381 155.777 130.594 156.234C129.806 156.691 128.912 156.932 128.002 156.934C127.093 156.933 126.2 156.694 125.412 156.239C124.624 155.785 123.969 155.131 123.512 154.343L106.746 125.235C106.289 124.446 106.049 123.55 106.049 122.638C106.049 121.726 106.289 120.83 106.746 120.041C107.201 119.251 107.855 118.595 108.643 118.138C109.431 117.682 110.324 117.44 111.234 117.438H144.756C146.605 117.438 148.316 118.416 149.246 120.029C149.702 120.818 149.943 121.714 149.943 122.627C149.943 123.539 149.702 124.435 149.246 125.224L132.49 154.331ZM206.779 177.916C206.296 178.751 205.581 179.428 204.722 179.864C203.862 180.3 202.895 180.476 201.937 180.371L147.296 174.278C146.447 174.184 145.634 173.88 144.931 173.393C144.229 172.905 143.659 172.25 143.273 171.486C142.887 170.722 142.697 169.873 142.72 169.017C142.744 168.161 142.98 167.324 143.408 166.583L143.442 166.527L165.263 128.633L165.298 128.576C165.725 127.833 166.33 127.209 167.059 126.761C167.787 126.312 168.616 126.054 169.47 126.008C170.322 125.963 171.172 126.13 171.943 126.495C172.715 126.86 173.384 127.411 173.89 128.099L206.483 172.494C207.051 173.272 207.382 174.198 207.434 175.161C207.487 176.123 207.259 177.08 206.779 177.916Z" fill="white"/>
</svg>

<svg xmlns="http://www.w3.org/2000/svg" fill="none" viewBox="0 0 256 256"><path fill="#E81899" d="M128 256c70.692 0 128-57.308 128-128S198.692 0 128 0 0 57.308 0 128s57.308 128 128 128"/><path fill="#fff" d="m219.009 163.23-32.558-44.348a20.7 20.7 0 0 0-6.304-5.678 20.6 20.6 0 0 0-8.047-2.664 4.04 4.04 0 0 1-3.576-3.803 4.1 4.1 0 0 1 .333-1.846 20.74 20.74 0 0 0-.034-16.629l-22.026-50.441a20.53 20.53 0 0 0-7.565-8.97 20.47 20.47 0 0 0-11.23-3.351c-3.988 0-7.89 1.166-11.228 3.355a20.56 20.56 0 0 0-7.568 8.966L87.178 88.262a20.8 20.8 0 0 0-.033 16.629 4.1 4.1 0 0 1-.204 3.647 4.05 4.05 0 0 1-3.04 2.001 20.6 20.6 0 0 0-8.047 2.664 20.7 20.7 0 0 0-6.304 5.678L36.992 163.23a20.63 20.63 0 0 0-1.247 22.483 20.57 20.57 0 0 0 8.514 8.066 20.5 20.5 0 0 0 11.528 2.095l54.585-6.092a20.62 20.62 0 0 0 14.375-8.287 4.05 4.05 0 0 1 3.253-1.648c1.282 0 2.483.614 3.253 1.648a20.62 20.62 0 0 0 14.375 8.287l54.584 6.092a20.5 20.5 0 0 0 11.532-2.088 20.54 20.54 0 0 0 8.511-8.073 20.63 20.63 0 0 0 2.713-11.427 20.6 20.6 0 0 0-3.959-11.056m-117.59-68.637 22.06-50.499a4.96 4.96 0 0 1 4.534-2.977 4.95 4.95 0 0 1 2.709.813 4.97 4.97 0 0 1 1.827 2.164l22.058 50.5a5.16 5.16 0 0 1-.407 4.888 5.14 5.14 0 0 1-4.309 2.329h-43.768a5.15 5.15 0 0 1-4.309-2.332 5.17 5.17 0 0 1-.395-4.886m11.324 76.879a5.15 5.15 0 0 1-4.025 2.794l-54.64 6.093a4.96 4.96 0 0 1-4.841-2.443 4.96 4.96 0 0 1 .306-5.422l32.592-44.395a5.12 5.12 0 0 1 4.421-2.091 5.12 5.12 0 0 1 4.172 2.568l.034.057 21.822 37.894.035.056c.427.741.664 1.577.688 2.432a5.16 5.16 0 0 1-.553 2.467zm19.747-17.141a5.19 5.19 0 0 1-4.488 2.603 5.19 5.19 0 0 1-4.49-2.591l-16.766-29.108a5.18 5.18 0 0 1 0-5.194 5.2 5.2 0 0 1 4.488-2.603h33.522c1.849 0 3.56.978 4.49 2.591a5.19 5.19 0 0 1 0 5.195zm74.289 23.585a4.96 4.96 0 0 1-4.842 2.455l-54.641-6.093a5.15 5.15 0 0 1-2.365-.885 5.15 5.15 0 0 1-2.211-4.376c.024-.856.26-1.693.688-2.434l.034-.056 21.821-37.894.035-.057a5.13 5.13 0 0 1 6.645-2.081 5.15 5.15 0 0 1 1.947 1.604l32.593 44.395a4.98 4.98 0 0 1 .296 5.422"/></svg>
